X: 28994
T: Naughton's
R: reel
M: 4/4
K: Amixolydian
A2 EA c/d/eed|BG ~G2 eGdG|EA c/d/e .a2 ed|1 c/d/e dB BAAG:|2 c/d/e dB BA A2||
a2 ea ~a2 ba|g2 ef ~g3 b|a2 ea ~a2 ba|gedB EA ~A2|
a2 ea ~a2 ba|g2 ef ~g3 a|~b3 a gbag|gedB eBdB||

